X:2149
T:Bride's a bonny thing, The
R:Wedding march
O:Shetland
M:6/8
K:A
A3 A3|BGB Bcd|A3 A3|f^df ece|\
A3 A3|BGB Bcd|ece dcB|A3 A2E::\
efg a2f|g2B Bcd|e2 aec|efg aec|\
efg agf|g2B Bcd|ece dcB|A3 A3:|
